SVG_Azure_Grouped/Application/Managed Application Center.svg

<?xml version="1.0" encoding="UTF-8" standalone="no"?>
<!-- Generated by Microsoft Visio, SVG Export Managed Application Center.svg Page-1 -->

<svg
   xmlns:dc="http://purl.org/dc/elements/1.1/"
   xmlns:cc="http://creativecommons.org/ns#"
   xmlns:rdf="http://www.w3.org/1999/02/22-rdf-syntax-ns#"
   xmlns:svg="http://www.w3.org/2000/svg"
   xmlns="http://www.w3.org/2000/svg"
   xmlns:sodipodi="http://sodipodi.sourceforge.net/DTD/sodipodi-0.dtd"
   xmlns:inkscape="http://www.inkscape.org/namespaces/inkscape"
   width="0.72413284in"
   height="0.62868935in"
   viewBox="0 0 52.137508 45.265699"
   xml:space="preserve"
   class="st7"
   version="1.1"
   id="svg44"
   sodipodi:docname="Managed Application Center.svg"
   style="font-size:12px;overflow:visible;color-interpolation-filters:sRGB;fill:none;fill-rule:evenodd;stroke-linecap:square;stroke-miterlimit:3"
   inkscape:version="0.92.5 (2060ec1f9f, 2020-04-08)"><metadata
   id="metadata50"><rdf:RDF><cc:Work
       rdf:about=""><dc:format>image/svg+xml</dc:format><dc:type
         rdf:resource="http://purl.org/dc/dcmitype/StillImage" /></cc:Work></rdf:RDF></metadata><defs
   id="defs48" /><sodipodi:namedview
   pagecolor="#ffffff"
   bordercolor="#666666"
   borderopacity="1"
   objecttolerance="10"
   gridtolerance="10"
   guidetolerance="10"
   inkscape:pageopacity="0"
   inkscape:pageshadow="2"
   inkscape:window-width="640"
   inkscape:window-height="480"
   id="namedview46"
   showgrid="false"
   inkscape:zoom="1.8741153"
   inkscape:cx="34.759734"
   inkscape:cy="13.705623"
   inkscape:window-x="0"
   inkscape:window-y="0"
   inkscape:window-maximized="0"
   inkscape:current-layer="svg44" />
	<style
   type="text/css"
   id="style2">
	<![CDATA[
		.st1 {fill:#3999c6;stroke:none;stroke-linecap:butt;stroke-width:12.24}
		.st2 {fill:#62117a;fill-opacity:0.15;stroke:none;stroke-linecap:butt;stroke-width:12.24}
		.st3 {fill:#59b4d9;stroke:none;stroke-linecap:butt;stroke-width:12.24}
		.st4 {fill:#ffffff;fill-opacity:0.2;stroke:none;stroke-linecap:butt;stroke-width:12.24}
		.st5 {fill:#ffffff;fill-opacity:0.4;stroke:none;stroke-linecap:butt;stroke-width:12.24}
		.st6 {fill:#804998;stroke:none;stroke-linecap:butt;stroke-width:12.24}
		.st7 {fill:none;fill-rule:evenodd;font-size:12px;overflow:visible;stroke-linecap:square;stroke-miterlimit:3}
	]]>
	</style>

	<g
   id="g42"
   transform="translate(-12.241058,-12.235883)">
		<title
   id="title4">Page-1</title>
		<g
   id="group13832-1"
   transform="translate(10.895,-34.0157)">
			<title
   id="title6">Managed Application Center.13832</title>
			<g
   id="group13833-2">
				<title
   id="title8">g16</title>
				<g
   id="shape13834-3"
   transform="translate(28.4135,-2.92529)">
					<title
   id="title10">path4</title>
					<path
   d="m 0.25,82.23 c 0.05,0 0.09,-0.01 0.13,-0.03 L 8.84,77.58 A 0.240819,0.237409 -180 0 0 8.97088,77.369428 L 8.98,68.1 a 0.248148,0.244635 -180 0 0 -0.13088,-0.212636 0.275371,0.271472 -180 0 0 -0.258618,0 L 0.13,72.51 A 0.247101,0.243602 -180 0 0 0.004355,72.721604 L 0,81.99 c 0,0.09 0.05,0.17 0.13,0.21 0.04,0.02 0.08,0.03 0.12,0.03 z m 0,12.21 c 0.05,0 0.09,-0.01 0.13,-0.03 L 8.84,89.79 A 0.240819,0.237409 -180 0 0 8.97088,89.579428 L 8.98,80.31 a 0.248148,0.244635 -180 0 0 -0.13088,-0.212636 0.275371,0.271472 -180 0 0 -0.258618,0 L 0.13,84.72 A 0.247101,0.243602 -180 0 0 0.004355,84.931604 L 0,94.2 c 0,0.09 0.05,0.17 0.13,0.21 0.04,0.02 0.08,0.03 0.12,0.03 z M 11.22,76.13 c 0.05,0 0.09,-0.01 0.13,-0.03 l 8.46,-4.62 a 0.239772,0.236377 -180 0 0 0.129833,-0.210572 L 19.94,62 a 0.248148,0.244635 -180 0 0 -0.13088,-0.212636 0.275371,0.271472 -180 0 0 -0.258618,0 L 11.09,66.4 a 0.247101,0.243602 -180 0 0 -0.125645,0.211604 L 10.97,75.89 c 0,0.09 0.05,0.16 0.12,0.21 a 0.262807,0.259086 -180 0 0 0.127739,0.032 z m 0,12.21 c 0.05,0 0.09,-0.01 0.13,-0.03 l 8.46,-4.62 a 0.238725,0.235345 -180 0 0 0.129833,-0.210572 L 19.94,74.21 a 0.248148,0.244635 -180 0 0 -0.13088,-0.212636 0.275371,0.271472 -180 0 0 -0.258618,0 L 11.09,78.61 a 0.247101,0.243602 -180 0 0 -0.125645,0.211604 L 10.97,88.1 c 0,0.09 0.05,0.16 0.12,0.21 a 0.262807,0.259086 -180 0 0 0.127739,0.032 z"
   class="st1"
   id="path12"
   inkscape:connector-curvature="0"
   style="fill:#3999c6;stroke:none;stroke-width:12.23999977;stroke-linecap:butt" />
				</g>
				<g
   id="shape13835-5"
   transform="translate(28.4135,-2.92529)">
					<title
   id="title15">path6</title>
					<path
   d="m 0.25,94.44 c 0.05,0 0.09,-0.01 0.13,-0.03 L 8.84,89.79 A 0.240819,0.237409 -180 0 0 8.97088,89.579428 L 8.98,80.31 a 0.248148,0.244635 -180 0 0 -0.13088,-0.212636 0.275371,0.271472 -180 0 0 -0.258618,0 L 0.13,84.72 A 0.247101,0.243602 -180 0 0 0.004355,84.931604 L 0,94.2 c 0,0.09 0.05,0.17 0.13,0.21 0.04,0.02 0.08,0.03 0.12,0.03 z m 10.97,-6.1 c 0.05,0 0.09,-0.01 0.13,-0.03 l 8.46,-4.62 a 0.238725,0.235345 -180 0 0 0.129833,-0.210572 L 19.94,74.21 a 0.248148,0.244635 -180 0 0 -0.13088,-0.212636 0.275371,0.271472 -180 0 0 -0.258618,0 L 11.09,78.61 a 0.247101,0.243602 -180 0 0 -0.125645,0.211604 L 10.97,88.1 c 0,0.09 0.05,0.16 0.12,0.21 a 0.262807,0.259086 -180 0 0 0.127739,0.032 z M 0.25,82.23 c 0.05,0 0.09,-0.01 0.13,-0.03 L 8.84,77.58 A 0.240819,0.237409 -180 0 0 8.97088,77.369428 L 8.98,68.1 a 0.248148,0.244635 -180 0 0 -0.13088,-0.212636 0.275371,0.271472 -180 0 0 -0.258618,0 L 0.13,72.51 A 0.247101,0.243602 -180 0 0 0.004355,72.721604 L 0,81.99 c 0,0.09 0.05,0.17 0.13,0.21 0.04,0.02 0.08,0.03 0.12,0.03 z m 10.97,-6.1 c 0.05,0 0.09,-0.01 0.13,-0.03 l 8.46,-4.62 a 0.239772,0.236377 -180 0 0 0.129833,-0.210572 L 19.94,62 a 0.248148,0.244635 -180 0 0 -0.13088,-0.212636 0.275371,0.271472 -180 0 0 -0.258618,0 L 11.09,66.4 a 0.247101,0.243602 -180 0 0 -0.125645,0.211604 L 10.97,75.89 c 0,0.09 0.05,0.16 0.12,0.21 a 0.262807,0.259086 -180 0 0 0.127739,0.032 z"
   class="st2"
   id="path17"
   inkscape:connector-curvature="0"
   style="fill:#62117a;fill-opacity:0.15;stroke:none;stroke-width:12.23999977;stroke-linecap:butt" />
				</g>
				<g
   id="shape13836-7"
   transform="translate(6.47488,-2.92529)">
					<title
   id="title20">path8</title>
					<path
   d="M 19.69,82.23 A 0.269089,0.265279 0 0 1 19.55912,82.198 L 11.1,77.58 A 0.240819,0.237409 0 0 1 10.96912,77.369428 L 10.97,68.1 c 0,-0.09 0.05,-0.17 0.13,-0.21 a 0.275371,0.271472 0 0 1 0.258618,0 L 19.82,72.51 c 0.08,0.04 0.12,0.12 0.12,0.21 v 9.27 a 0.245007,0.241538 0 0 1 -0.125645,0.210572 0.268042,0.264247 0 0 1 -0.126692,0.032 z m 0,12.21 A 0.269089,0.265279 0 0 1 19.55912,94.408 L 11.1,89.79 A 0.240819,0.237409 0 0 1 10.96912,89.579428 L 10.97,80.31 c 0,-0.09 0.05,-0.17 0.13,-0.21 a 0.275371,0.271472 0 0 1 0.258618,0 L 19.82,84.72 c 0.08,0.04 0.12,0.12 0.12,0.21 v 9.27 a 0.245007,0.241538 0 0 1 -0.125645,0.210572 0.268042,0.264247 0 0 1 -0.126692,0.032 z M 8.72,76.13 A 0.269089,0.265279 0 0 1 8.58912,76.098 L 0.13,71.48 A 0.239772,0.236377 0 0 1 1.67e-4,71.269428 L 0,62 c 0,-0.09 0.05,-0.17 0.13,-0.22 a 0.275371,0.271472 0 0 1 0.258618,0 L 8.85,66.4 c 0.08,0.05 0.13,0.13 0.13,0.21 v 9.28 a 0.245007,0.241538 0 0 1 -0.125645,0.210572 0.262807,0.259086 0 0 1 -0.127739,0.032 z m 0,12.21 A 0.269089,0.265279 0 0 1 8.58912,88.308 L 0.13,83.69 A 0.238725,0.235345 0 0 1 1.67e-4,83.479428 L 0,74.21 c 0,-0.09 0.05,-0.17 0.13,-0.22 a 0.275371,0.271472 0 0 1 0.258618,0 L 8.85,78.61 c 0.08,0.05 0.13,0.13 0.13,0.21 v 9.28 a 0.245007,0.241538 0 0 1 -0.125645,0.210572 0.262807,0.259086 0 0 1 -0.127739,0.032 z M 12.4,65.32 a 0.248148,0.244635 0 0 1 0.09423,-0.08774 L 20.9,60.73 a 0.261759,0.258053 0 0 1 0.25443,-0.0021 L 29.48,65.19 a 0.236631,0.23328 0 0 1 0.124598,0.206443 0.251289,0.247731 0 0 1 -0.129833,0.20541 L 21.07,70.11 A 0.268042,0.264247 0 0 1 20.816617,70.1079 L 12.49,65.64 a 0.232442,0.229151 0 0 1 -0.125645,-0.201282 0.245007,0.241538 0 0 1 0.0356,-0.11664 z M 1.43,59.44 A 0.245007,0.241538 0 0 1 1.523186,59.35226 L 9.84,54.85 a 0.257571,0.253925 0 0 1 0.252336,-0.0021 L 18.33,59.31 a 0.235584,0.232248 0 0 1 0.12355,0.206443 0.249195,0.245667 0 0 1 -0.128786,0.20541 L 10.01,64.23 A 0.261759,0.258053 0 0 1 9.759758,64.2279 L 1.52,59.76 a 0.235584,0.232248 0 0 1 -0.124598,-0.201282 0.234536,0.231216 0 0 1 0.035599,-0.11664 z m 22.16,0.1 a 0.245007,0.241538 0 0 1 0.09319,-0.08774 L 32,54.95 a 0.257571,0.253925 0 0 1 0.252336,-0.0021 L 40.48,59.41 a 0.235584,0.232248 0 0 1 0.12355,0.206443 0.249195,0.245667 0 0 1 -0.128786,0.20541 L 32.16,64.32 A 0.261759,0.258053 0 0 1 31.909758,64.3179 L 23.68,59.86 a 0.235584,0.232248 0 0 1 -0.124598,-0.201282 0.238725,0.235345 0 0 1 0.0356,-0.11664 z M 12.44,53.73 a 0.253383,0.249796 0 0 1 0.09423,-0.08671 L 20.94,49.21 a 0.264901,0.26115 0 0 1 0.25443,-0.0021 L 29.52,53.61 a 0.230348,0.227087 0 0 1 0.124598,0.202314 0.247101,0.243602 0 0 1 -0.129833,0.202314 L 21.11,58.44 A 0.274324,0.27044 0 0 1 20.856617,58.4379 L 12.53,54.04 a 0.228254,0.225023 0 0 1 -0.125645,-0.198185 0.240819,0.237409 0 0 1 0.0356,-0.114576 z"
   class="st3"
   id="path22"
   inkscape:connector-curvature="0"
   style="fill:#59b4d9;stroke:none;stroke-width:12.23999977;stroke-linecap:butt" />
				</g>
				<g
   id="shape13837-9"
   transform="translate(7.87372,-27.2314)">
					<title
   id="title25">path10</title>
					<path
   d="m 11,89.63 a 0.248148,0.244635 0 0 1 0.09423,-0.08774 L 19.5,85.03 a 0.261759,0.258053 0 0 1 0.25443,-0.0021 L 28.08,89.5 a 0.236631,0.23328 0 0 1 0.124598,0.206443 0.251289,0.247731 0 0 1 -0.129833,0.20541 L 19.67,94.41 A 0.268042,0.264247 0 0 1 19.416617,94.4079 L 11.09,89.94 a 0.232442,0.229151 0 0 1 -0.125645,-0.201282 0.245007,0.241538 0 0 1 0.0356,-0.11664 z M 0.04,83.74 A 0.245007,0.241538 0 0 1 0.1331864,83.65226 L 8.44,79.15 A 0.257571,0.253925 0 0 1 8.692336,79.1479 L 16.93,83.62 a 0.235584,0.232248 0 0 1 0.12355,0.206443 0.249195,0.245667 0 0 1 -0.128786,0.20541 L 8.61,88.53 A 0.261759,0.258053 0 0 1 8.359758,88.5279 L 0.12,84.06 a 0.235584,0.232248 0 0 1 -0.124598,-0.201282 0.234536,0.231216 0 0 1 0.0355993,-0.11664 z m 22.15,0.1 a 0.245007,0.241538 0 0 1 0.09319,-0.08774 L 30.6,79.25 a 0.257571,0.253925 0 0 1 0.252336,-0.0021 L 39.08,83.72 a 0.235584,0.232248 0 0 1 0.12355,0.206443 0.249195,0.245667 0 0 1 -0.128786,0.20541 L 30.76,88.63 A 0.261759,0.258053 0 0 1 30.509758,88.6279 L 22.28,84.16 a 0.235584,0.232248 0 0 1 -0.124598,-0.201282 0.238725,0.235345 0 0 1 0.0356,-0.11664 z m -11.15,-5.8 a 0.253383,0.249796 0 0 1 0.09423,-0.08671 L 19.54,73.52 a 0.264901,0.26115 0 0 1 0.25443,-0.0021 L 28.12,77.91 a 0.230348,0.227087 0 0 1 0.124598,0.202314 0.247101,0.243602 0 0 1 -0.129833,0.202314 L 19.71,82.75 A 0.274324,0.27044 0 0 1 19.456617,82.7479 L 11.13,78.35 a 0.228254,0.225023 0 0 1 -0.125645,-0.198185 0.240819,0.237409 0 0 1 0.0356,-0.114576 z"
   class="st4"
   id="path27"
   inkscape:connector-curvature="0"
   style="fill:#ffffff;fill-opacity:0.2;stroke:none;stroke-width:12.23999977;stroke-linecap:butt" />
				</g>
				<g
   id="shape13838-11"
   transform="translate(15.0805,-4.78844)">
					<title
   id="title30">path12</title>
					<path
   d="m 33.28,63.86 c 0,-0.1 -0.08,-0.16 -0.11,-0.19 L 33.04,63.56 C 31.24,68.25 26.42,75.03 17.91,81.37 11.06,86.48 4.74,89.16 0,90.23 l 7.64,4.21 c 4.44,-1.81 9.1,-4.46 13.56,-7.79 4.92,-3.67 9.02,-7.69 12.08,-11.65 z"
   class="st5"
   id="path32"
   inkscape:connector-curvature="0"
   style="fill:#ffffff;fill-opacity:0.4;stroke:none;stroke-width:12.23999977;stroke-linecap:butt" />
				</g>
				<g
   id="shape13839-13">
					<title
   id="title35">path14</title>
					<path
   d="M 52.14,51.41 C 49.43,47.73 43.1,47.39 35.54,49.86 l 3.79,2.01 c 5.07,-1.22 8.78,-0.74 10.04,0.97 2.48,3.38 -2.41,14.63 -15.75,24.57 C 20.29,87.34 8.17,88.77 5.68,85.39 4.78,84.16 4.86,81.89 5.95,79.03 V 71.98 C 1.48,78.48 0,84.61 2.69,88.26 7.24,94.44 22,91.21 35.65,81.03 49.31,70.86 56.69,57.59 52.14,51.41 Z"
   class="st6"
   id="path37"
   inkscape:connector-curvature="0"
   style="fill:#804998;stroke:none;stroke-width:12.23999977;stroke-linecap:butt" />
				</g>
			</g>
		</g>
	</g>
</svg>

<?xml version="1.0" encoding="UTF-8" standalone="no"?>
<!DOCTYPE svg PUBLIC "-//W3C//DTD SVG 1.1//EN" "http://www.w3.org/Graphics/SVG/1.1/DTD/svg11.dtd">
<!-- Generated by Microsoft Visio, SVG Export Managed Application Center.svg Page-1 -->
<svg xmlns="http://www.w3.org/2000/svg" xmlns:xlink="http://www.w3.org/1999/xlink" xmlns:ev="http://www.w3.org/2001/xml-events"
		width="1.06419in" height="1.31173in" viewBox="0 0 76.6216 94.4447" xml:space="preserve" color-interpolation-filters="sRGB"
		class="st7">
	<style type="text/css">
	<![CDATA[
		.st1 {fill:#3999c6;stroke:none;stroke-linecap:butt;stroke-width:12.24}
		.st2 {fill:#62117a;fill-opacity:0.15;stroke:none;stroke-linecap:butt;stroke-width:12.24}
		.st3 {fill:#59b4d9;stroke:none;stroke-linecap:butt;stroke-width:12.24}
		.st4 {fill:#ffffff;fill-opacity:0.2;stroke:none;stroke-linecap:butt;stroke-width:12.24}
		.st5 {fill:#ffffff;fill-opacity:0.4;stroke:none;stroke-linecap:butt;stroke-width:12.24}
		.st6 {fill:#804998;stroke:none;stroke-linecap:butt;stroke-width:12.24}
		.st7 {fill:none;fill-rule:evenodd;font-size:12px;overflow:visible;stroke-linecap:square;stroke-miterlimit:3}
	]]>
	</style>

	<g>
		<title>Page-1</title>
		<g id="group13485-1" transform="translate(10.895,-34.0157)">
			<title>Managed Application Center.13485</title>
			<g id="group13486-2">
				<title>g16</title>
				<g id="shape13487-3" transform="translate(28.4135,-2.92529)">
					<title>path4</title>
					<path d="M0.25 82.23 C0.3 82.23 0.34 82.22 0.38 82.2 L8.84 77.58 a0.240819 0.237409 -180 0 0 0.13088 -0.210572
								 L8.98 68.1 a0.248148 0.244635 -180 0 0 -0.13088 -0.212636 a0.275371 0.271472 -180 0 0 -0.258618
								 2.41585E-13 L0.13 72.51 a0.247101 0.243602 -180 0 0 -0.125645 0.211604 L0 81.99 C0 82.08 0.05 82.16
								 0.13 82.2 C0.17 82.22 0.21 82.23 0.25 82.23 ZM0.25 94.44 C0.3 94.44 0.34 94.43 0.38 94.41 L8.84
								 89.79 a0.240819 0.237409 -180 0 0 0.13088 -0.210572 L8.98 80.31 a0.248148 0.244635 -180 0 0 -0.13088
								 -0.212636 a0.275371 0.271472 -180 0 0 -0.258618 0 L0.13 84.72 a0.247101 0.243602 -180 0 0 -0.125645
								 0.211604 L0 94.2 C0 94.29 0.05 94.37 0.13 94.41 C0.17 94.43 0.21 94.44 0.25 94.44 ZM11.22 76.13
								 C11.27 76.13 11.31 76.12 11.35 76.1 L19.81 71.48 a0.239772 0.236377 -180 0 0 0.129833 -0.210572
								 L19.94 62 a0.248148 0.244635 -180 0 0 -0.13088 -0.212636 a0.275371 0.271472 -180 0 0 -0.258618 -2.41585E-13
								 L11.09 66.4 a0.247101 0.243602 -180 0 0 -0.125645 0.211604 L10.97 75.89 C10.97 75.98 11.02 76.05
								 11.09 76.1 a0.262807 0.259086 -180 0 0 0.127739 0.0319986 ZM11.22 88.34 C11.27 88.34 11.31 88.33
								 11.35 88.31 L19.81 83.69 a0.238725 0.235345 -180 0 0 0.129833 -0.210572 L19.94 74.21 a0.248148 0.244635
								 -180 0 0 -0.13088 -0.212636 a0.275371 0.271472 -180 0 0 -0.258618 -2.84217E-14 L11.09 78.61 a0.247101
								 0.243602 -180 0 0 -0.125645 0.211604 L10.97 88.1 C10.97 88.19 11.02 88.26 11.09 88.31 a0.262807
								 0.259086 -180 0 0 0.127739 0.0319986 Z" class="st1"/>
				</g>
				<g id="shape13488-5" transform="translate(28.4135,-2.92529)">
					<title>path6</title>
					<path d="M0.25 94.44 C0.3 94.44 0.34 94.43 0.38 94.41 L8.84 89.79 a0.240819 0.237409 -180 0 0 0.13088 -0.210572
								 L8.98 80.31 a0.248148 0.244635 -180 0 0 -0.13088 -0.212636 a0.275371 0.271472 -180 0 0 -0.258618
								 0 L0.13 84.72 a0.247101 0.243602 -180 0 0 -0.125645 0.211604 L0 94.2 C0 94.29 0.05 94.37 0.13 94.41
								 C0.17 94.43 0.21 94.44 0.25 94.44 ZM11.22 88.34 C11.27 88.34 11.31 88.33 11.35 88.31 L19.81 83.69
								 a0.238725 0.235345 -180 0 0 0.129833 -0.210572 L19.94 74.21 a0.248148 0.244635 -180 0 0 -0.13088
								 -0.212636 a0.275371 0.271472 -180 0 0 -0.258618 -2.84217E-14 L11.09 78.61 a0.247101 0.243602 -180
								 0 0 -0.125645 0.211604 L10.97 88.1 C10.97 88.19 11.02 88.26 11.09 88.31 a0.262807 0.259086 -180
								 0 0 0.127739 0.0319986 ZM0.25 82.23 C0.3 82.23 0.34 82.22 0.38 82.2 L8.84 77.58 a0.240819 0.237409
								 -180 0 0 0.13088 -0.210572 L8.98 68.1 a0.248148 0.244635 -180 0 0 -0.13088 -0.212636 a0.275371 0.271472
								 -180 0 0 -0.258618 4.26326E-14 L0.13 72.51 a0.247101 0.243602 -180 0 0 -0.125645 0.211604 L0 81.99
								 C0 82.08 0.05 82.16 0.13 82.2 C0.17 82.22 0.21 82.23 0.25 82.23 ZM11.22 76.13 C11.27 76.13 11.31
								 76.12 11.35 76.1 L19.81 71.48 a0.239772 0.236377 -180 0 0 0.129833 -0.210572 L19.94 62 a0.248148
								 0.244635 -180 0 0 -0.13088 -0.212636 a0.275371 0.271472 -180 0 0 -0.258618 -2.41585E-13 L11.09 66.4
								 a0.247101 0.243602 -180 0 0 -0.125645 0.211604 L10.97 75.89 C10.97 75.98 11.02 76.05 11.09 76.1
								 a0.262807 0.259086 -180 0 0 0.127739 0.0319986 Z" class="st2"/>
				</g>
				<g id="shape13489-7" transform="translate(6.47488,-2.92529)">
					<title>path8</title>
					<path d="M19.69 82.23 a0.269089 0.265279 0 0 1 -0.13088 -0.0319986 L11.1 77.58 a0.240819 0.237409 0 0 1 -0.13088
								 -0.210572 L10.97 68.1 C10.97 68.01 11.02 67.93 11.1 67.89 a0.275371 0.271472 0 0 1 0.258618 -7.10543E-14
								 L19.82 72.51 C19.9 72.55 19.94 72.63 19.94 72.72 L19.94 81.99 a0.245007 0.241538 0 0 1 -0.125645
								 0.210572 a0.268042 0.264247 0 0 1 -0.126692 0.0319986 ZM19.69 94.44 a0.269089 0.265279 0 0 1 -0.13088
								 -0.0319986 L11.1 89.79 a0.240819 0.237409 0 0 1 -0.13088 -0.210572 L10.97 80.31 C10.97 80.22 11.02
								 80.14 11.1 80.1 a0.275371 0.271472 0 0 1 0.258618 4.26326E-14 L19.82 84.72 C19.9 84.76 19.94 84.84
								 19.94 84.93 L19.94 94.2 a0.245007 0.241538 0 0 1 -0.125645 0.210572 a0.268042 0.264247 0 0 1 -0.126692
								 0.0319986 ZM8.72 76.13 a0.269089 0.265279 0 0 1 -0.13088 -0.0319986 L0.13 71.48 a0.239772 0.236377
								 0 0 1 -0.129833 -0.210572 L0 62 C0 61.91 0.05 61.83 0.13 61.78 a0.275371 0.271472 0 0 1 0.258618
								 -2.84217E-14 L8.85 66.4 C8.93 66.45 8.98 66.53 8.98 66.61 L8.98 75.89 a0.245007 0.241538 0 0 1 -0.125645
								 0.210572 a0.262807 0.259086 0 0 1 -0.127739 0.0319986 ZM8.72 88.34 a0.269089 0.265279 0 0 1 -0.13088
								 -0.0319986 L0.13 83.69 a0.238725 0.235345 0 0 1 -0.129833 -0.210572 L0 74.21 C0 74.12 0.05 74.04
								 0.13 73.99 a0.275371 0.271472 0 0 1 0.258618 -2.84217E-14 L8.85 78.61 C8.93 78.66 8.98 78.74 8.98
								 78.82 L8.98 88.1 a0.245007 0.241538 0 0 1 -0.125645 0.210572 a0.262807 0.259086 0 0 1 -0.127739
								 0.0319986 ZM12.4 65.32 a0.248148 0.244635 0 0 1 0.0942334 -0.0877381 L20.9 60.73 a0.261759 0.258053
								 0 0 1 0.25443 -0.00206443 L29.48 65.19 a0.236631 0.23328 0 0 1 0.124598 0.206443 a0.251289 0.247731
								 0 0 1 -0.129833 0.20541 L21.07 70.11 a0.268042 0.264247 0 0 1 -0.253383 -0.00206443 L12.49 65.64
								 a0.232442 0.229151 0 0 1 -0.125645 -0.201282 a0.245007 0.241538 0 0 1 0.0355993 -0.11664 ZM1.43
								 59.44 a0.245007 0.241538 0 0 1 0.0931864 -0.0877381 L9.84 54.85 a0.257571 0.253925 0 0 1 0.252336
								 -0.00206443 L18.33 59.31 a0.235584 0.232248 0 0 1 0.12355 0.206443 a0.249195 0.245667 0 0 1 -0.128786
								 0.20541 L10.01 64.23 a0.261759 0.258053 0 0 1 -0.250242 -0.00206443 L1.52 59.76 a0.235584 0.232248
								 0 0 1 -0.124598 -0.201282 a0.234536 0.231216 0 0 1 0.0355993 -0.11664 ZM23.59 59.54 a0.245007 0.241538
								 0 0 1 0.0931864 -0.0877381 L32 54.95 a0.257571 0.253925 0 0 1 0.252336 -0.00206443 L40.48 59.41
								 a0.235584 0.232248 0 0 1 0.12355 0.206443 a0.249195 0.245667 0 0 1 -0.128786 0.20541 L32.16 64.32
								 a0.261759 0.258053 0 0 1 -0.250242 -0.00206443 L23.68 59.86 a0.235584 0.232248 0 0 1 -0.124598 -0.201282
								 a0.238725 0.235345 0 0 1 0.0355993 -0.11664 ZM12.44 53.73 a0.253383 0.249796 0 0 1 0.0942334 -0.0867059
								 L20.94 49.21 a0.264901 0.26115 0 0 1 0.25443 -0.00206443 L29.52 53.61 a0.230348 0.227087 0 0 1 0.124598
								 0.202314 a0.247101 0.243602 0 0 1 -0.129833 0.202314 L21.11 58.44 a0.274324 0.27044 0 0 1 -0.253383
								 -0.00206443 L12.53 54.04 a0.228254 0.225023 0 0 1 -0.125645 -0.198185 a0.240819 0.237409 0 0 1 0.0355993
								 -0.114576 Z" class="st3"/>
				</g>
				<g id="shape13490-9" transform="translate(7.87372,-27.2314)">
					<title>path10</title>
					<path d="M11 89.63 a0.248148 0.244635 0 0 1 0.0942334 -0.0877381 L19.5 85.03 a0.261759 0.258053 0 0 1 0.25443
								 -0.00206443 L28.08 89.5 a0.236631 0.23328 0 0 1 0.124598 0.206443 a0.251289 0.247731 0 0 1 -0.129833
								 0.20541 L19.67 94.41 a0.268042 0.264247 0 0 1 -0.253383 -0.00206443 L11.09 89.94 a0.232442 0.229151
								 0 0 1 -0.125645 -0.201282 a0.245007 0.241538 0 0 1 0.0355993 -0.11664 ZM0.04 83.74 a0.245007 0.241538
								 0 0 1 0.0931864 -0.0877381 L8.44 79.15 a0.257571 0.253925 0 0 1 0.252336 -0.00206443 L16.93 83.62
								 a0.235584 0.232248 0 0 1 0.12355 0.206443 a0.249195 0.245667 0 0 1 -0.128786 0.20541 L8.61 88.53
								 a0.261759 0.258053 0 0 1 -0.250242 -0.00206443 L0.12 84.06 a0.235584 0.232248 0 0 1 -0.124598 -0.201282
								 a0.234536 0.231216 0 0 1 0.0355993 -0.11664 ZM22.19 83.84 a0.245007 0.241538 0 0 1 0.0931864 -0.0877381
								 L30.6 79.25 a0.257571 0.253925 0 0 1 0.252336 -0.00206443 L39.08 83.72 a0.235584 0.232248 0 0 1
								 0.12355 0.206443 a0.249195 0.245667 0 0 1 -0.128786 0.20541 L30.76 88.63 a0.261759 0.258053 0 0
								 1 -0.250242 -0.00206443 L22.28 84.16 a0.235584 0.232248 0 0 1 -0.124598 -0.201282 a0.238725 0.235345
								 0 0 1 0.0355993 -0.11664 ZM11.04 78.04 a0.253383 0.249796 0 0 1 0.0942334 -0.0867059 L19.54 73.52
								 a0.264901 0.26115 0 0 1 0.25443 -0.00206443 L28.12 77.91 a0.230348 0.227087 0 0 1 0.124598 0.202314
								 a0.247101 0.243602 0 0 1 -0.129833 0.202314 L19.71 82.75 a0.274324 0.27044 0 0 1 -0.253383 -0.00206443
								 L11.13 78.35 a0.228254 0.225023 0 0 1 -0.125645 -0.198185 a0.240819 0.237409 0 0 1 0.0355993 -0.114576
								 Z" class="st4"/>
				</g>
				<g id="shape13491-11" transform="translate(15.0805,-4.78844)">
					<title>path12</title>
					<path d="M33.28 63.86 C33.28 63.76 33.2 63.7 33.17 63.67 L33.04 63.56 C31.24 68.25 26.42 75.03 17.91 81.37 C11.06
								 86.48 4.74 89.16 0 90.23 L7.64 94.44 C12.08 92.63 16.74 89.98 21.2 86.65 C26.12 82.98 30.22 78.96
								 33.28 75 L33.28 63.86 Z" class="st5"/>
				</g>
				<g id="shape13492-13">
					<title>path14</title>
					<path d="M52.14 51.41 C49.43 47.73 43.1 47.39 35.54 49.86 L39.33 51.87 C44.4 50.65 48.11 51.13 49.37 52.84 C51.85
								 56.22 46.96 67.47 33.62 77.41 C20.29 87.34 8.17 88.77 5.68 85.39 C4.78 84.16 4.86 81.89 5.95 79.03
								 L5.95 71.98 C1.48 78.48 0 84.61 2.69 88.26 C7.24 94.44 22 91.21 35.65 81.03 C49.31 70.86 56.69 57.59
								 52.14 51.41 Z" class="st6"/>
				</g>
			</g>
		</g>
	</g>
</svg>
